X: 424
T: My Darling Don't Leave Me
N:"With feeling" "collected by Stack"
N:Irish title: na treig mo .muirnin
B:O'Neill's 424
Z:Transcribed by henrik.norbeck@mailbox.swipnet.se
M:3/4
L:1/8
K:G
de | B2 (3GAB AG | E2 DE (3GAB | A2 G2 G2 | G4 ||
(de/f/) | g2 ef {a}ge | d2 B2 GB | c2 cd e^c | d4 (de/f/) |
{a}g2 ef ge | d2 B2 (3GAB | c3 d (e/f/{a}g/e/) | d4 dc |
B2 (3GAB AG | E2 DE (3GAB | A2 G2 G2 | G4 ||


